X: 8699
T: Crow Road Croft, The
R: waltz
M: 3/4
K: Dmajor
d2 AA de|f6|fe/f/ ag fe|ef d2 c2|B2 AB BA|c2 Ac cA|d4- dc|dd B2 A2|
d2 AA de|f6|fe/f/ ag fe|ef d2 c2|B2 FF GG|E3 E ED|D6-|D3 D DE||
F2 DD FG|A2 EE GE|F2 B,2 CD|E2 A,4|F2 DD FG|A3 A cd|d4- dc/B/|A2 E4|
F2 DD FG|A2 EE GE|F2 B,2 CD|E2 A,4|F2 DD FG|A3 A cd|d z E2 FG|A2 B2 c2||

